assets/images/svg/comingsoon2.svg

<svg width="203" height="264" viewBox="0 0 203 264" fill="none" xmlns="http://www.w3.org/2000/svg">
<rect width="203" height="264" fill="white" fill-opacity="0.01"/>
<path d="M57.9835 21.7354H19.9971C17.7901 21.7354 16 19.9473 16 17.7382V13.9971C16 11.7923 17.7901 10 19.9971 10H57.9835C60.1926 10 61.9806 11.7923 61.9806 13.9971V17.7382C61.9806 19.9473 60.1926 21.7354 57.9835 21.7354Z" fill="#33A6BF"/>
<path d="M61.9806 49.9941L42.5832 21.735H38.9902L58.5887 49.9941H61.9806Z" fill="#1F2F3E"/>
<path d="M126.402 96.9333C126.402 96.9333 120.655 97.8897 115.865 101.244C111.074 104.595 72.7576 63.4052 72.7576 63.4052C72.7576 63.4052 67.0084 65.0811 66.052 69.8717C66.052 69.8717 79.9436 96.6941 109.159 118.248C113.469 123.036 111.315 149.859 116.104 155.127C120.892 160.396 145.322 151.295 146.997 146.985C148.673 142.675 143.883 98.1309 126.402 96.9333" fill="#FEB858"/>
<path d="M115.865 101.244C118.753 99.2211 121.984 98.0742 124.098 97.4796V97.4775L77.3068 61.7298C75.8721 62.9274 75.0088 65.7988 75.0088 65.8009C83.2697 74.5231 111.774 104.105 115.865 101.244Z" fill="#FEB858" fill-opacity="0.9"/>
<path d="M119.697 59.5732C119.697 59.5732 109.398 70.8283 105.327 78.9728C101.256 87.1151 110.357 94.0598 113.95 97.4116C116.104 99.5678 115.865 101.244 115.865 101.244C115.865 101.244 123.288 97.1724 126.402 96.9333L124.246 91.1863C124.246 91.1863 130.952 89.5104 132.388 82.3245C133.825 75.1406 128.556 72.5063 123.527 80.4095C123.527 80.4095 121.851 74.4212 124.485 67.4765C124.485 67.4765 121.131 63.4053 119.697 59.5732" fill="#FBC3B1"/>
<path d="M156.338 71.0695C154.66 63.4053 148.912 62.4468 148.912 62.4468C148.912 62.4468 153.223 56.9388 148.912 49.2747C144.602 41.6127 131.432 46.8815 131.432 46.8815C130.713 42.3321 124.485 40.415 120.414 43.5298C111.554 49.0377 116.36 63.4053 116.36 63.4053C118.309 61.0926 119.697 59.5732 119.697 59.5732C121.131 63.4053 124.485 67.4765 124.485 67.4765C121.851 74.4212 123.527 80.4095 123.527 80.4095C128.557 72.5063 133.825 75.1407 132.389 82.3245C130.952 89.5104 124.246 91.1863 124.246 91.1863C128.078 94.7772 136.699 99.5678 143.883 95.0184C151.069 90.4668 147.311 82.3245 147.311 82.3245C152.173 82.0854 157.455 76.1796 156.338 71.0695" fill="#1F2F3E"/>
<path d="M116.104 155.128C116.104 155.128 118.658 194.642 122.49 211.566C126.322 228.49 130.154 248.287 130.154 248.287C130.154 248.287 135.582 249.245 138.455 248.287V152.548C130.404 155.955 119.187 158.52 116.104 155.128" fill="#3B2E90"/>
<path d="M146.997 146.985C145.666 150.407 130.006 156.841 121.205 156.715L175.496 243.815C179.965 243.815 184.436 239.985 184.436 239.985L146.997 146.985Z" fill="#443699"/>
<path d="M130.154 248.287C130.154 248.287 122.09 249.844 120.535 253.075H138.455C138.455 253.075 139.373 251.399 138.455 248.287C138.455 248.287 134.263 249.364 130.154 248.287Z" fill="#1F2F3E"/>
<path d="M176.315 243.894C176.315 243.894 169.732 248.803 169.736 252.39L185.875 244.599C185.875 244.599 185.974 242.692 183.795 240.286C183.795 240.286 180.487 243.079 176.315 243.894Z" fill="#1F2F3E"/>
<path d="M77.3068 61.7296C77.3068 61.7296 74.2746 54.9436 72.7574 52.3895C71.2402 49.8355 63.8977 49.9943 63.8977 49.9943L72.7574 63.4055L75.0088 65.8008C75.0088 65.8008 75.8722 63.2447 77.3068 61.7296" fill="#DBA397"/>
<path d="M72.7575 63.4052C72.7575 63.4052 70.9207 55.4236 70.6012 53.187C70.2817 50.9525 60.7047 46.8009 59.7462 46.3227C58.7855 45.8424 58.7855 52.0698 58.7855 52.0698C58.7855 52.0698 57.6704 55.4237 57.1922 57.4995C56.7118 59.5731 66.6528 68.1514 66.6528 68.1514C66.6528 68.1514 68.2081 65.0811 72.7575 63.4052" fill="#FBC3B1"/>
<path d="M126.402 96.9333C126.402 96.9333 120.655 97.8897 115.865 101.244C115.865 101.244 121.677 113.523 109.159 118.248C113.469 123.036 111.315 149.859 116.104 155.127C120.892 160.396 145.322 151.295 146.997 146.985C148.673 142.675 143.883 98.1309 126.402 96.9333Z" fill="#1F2F3E"/>
<path d="M106.727 130.812C106.92 130.873 109 131.479 112.938 131.479C119.343 131.481 130.636 129.871 146.723 121.824L144.789 118.339C129.198 126.135 118.608 127.54 112.938 127.542C111.193 127.542 109.913 127.408 109.092 127.282C108.681 127.219 108.386 127.158 108.204 127.117L108.019 127.07L107.99 127.062L107.747 127.826L108.007 127.068L107.99 127.062L107.747 127.826L108.007 127.068L106.727 130.812Z" fill="#FEB858"/>
<path d="M109.461 139.142C109.565 139.158 111.055 139.38 113.812 139.38C120.109 139.382 133.02 138.213 151.076 130.804L149.428 127.19C131.887 134.386 119.571 135.441 113.812 135.443C112.55 135.443 111.604 135.392 110.986 135.343C110.677 135.319 110.449 135.296 110.306 135.278L110.154 135.26L110.125 135.256L110.071 135.599L110.129 135.256H110.125L110.071 135.599L110.129 135.256L109.461 139.142Z" fill="#FEB858"/>
</svg>

<svg xmlns="http://www.w3.org/2000/svg" width="203" height="264" fill="none"><path fill="#fff" fill-opacity=".01" d="M0 0h203v264H0z"/><path fill="#33A6BF" d="M57.983 21.735H19.998A3.997 3.997 0 0 1 16 17.738v-3.74A4 4 0 0 1 19.997 10h37.987a3.998 3.998 0 0 1 3.997 3.997v3.741a3.995 3.995 0 0 1-3.998 3.997Z"/><path fill="#1F2F3E" d="M61.98 49.994 42.584 21.735H38.99l19.599 28.26h3.392Z"/><path fill="#FEB858" d="M126.402 96.933s-5.747.957-10.537 4.311c-4.791 3.351-43.107-37.839-43.107-37.839s-5.75 1.676-6.706 6.467c0 0 13.892 26.822 43.107 48.376 4.31 4.788 2.156 31.611 6.945 36.879 4.788 5.269 29.218-3.832 30.893-8.142 1.676-4.31-3.114-48.854-20.595-50.052"/><path fill="#FEB858" fill-opacity=".9" d="M115.865 101.244c2.888-2.023 6.119-3.17 8.233-3.764v-.002L77.307 61.73c-1.435 1.197-2.298 4.069-2.298 4.07 8.26 8.723 36.765 38.305 40.856 35.444Z"/><path fill="#FBC3B1" d="M119.697 59.573s-10.299 11.255-14.37 19.4c-4.071 8.142 5.03 15.087 8.623 18.439 2.154 2.156 1.915 3.832 1.915 3.832s7.423-4.072 10.537-4.31l-2.156-5.748s6.706-1.676 8.142-8.862c1.437-7.183-3.832-9.818-8.861-1.915 0 0-1.676-5.988.958-12.933 0 0-3.354-4.07-4.788-7.903"/><path fill="#1F2F3E" d="M156.338 71.07c-1.678-7.665-7.426-8.623-7.426-8.623s4.311-5.508 0-13.172c-4.31-7.662-17.48-2.393-17.48-2.393-.719-4.55-6.947-6.467-11.018-3.352-8.86 5.508-4.054 19.875-4.054 19.875 1.949-2.312 3.337-3.832 3.337-3.832 1.434 3.832 4.788 7.904 4.788 7.904-2.634 6.944-.958 12.932-.958 12.932 5.03-7.903 10.298-5.268 8.862 1.915-1.437 7.186-8.143 8.862-8.143 8.862 3.832 3.591 12.453 8.382 19.637 3.832 7.186-4.551 3.428-12.694 3.428-12.694 4.862-.239 10.144-6.144 9.027-11.254"/><path fill="#3B2E90" d="M116.104 155.128s2.554 39.514 6.386 56.438c3.832 16.924 7.664 36.721 7.664 36.721s5.428.958 8.301 0v-95.739c-8.051 3.407-19.268 5.972-22.351 2.58"/><path fill="#443699" d="M146.997 146.985c-1.331 3.422-16.991 9.856-25.792 9.73l54.291 87.1c4.469 0 8.94-3.83 8.94-3.83l-37.439-93Z"/><path fill="#1F2F3E" d="M130.154 248.287s-8.064 1.557-9.619 4.788h17.92s.918-1.676 0-4.788c0 0-4.192 1.077-8.301 0ZM176.315 243.894s-6.583 4.909-6.579 8.496l16.139-7.791s.099-1.907-2.08-4.313c0 0-3.308 2.793-7.48 3.608Z"/><path fill="#DBA397" d="M77.307 61.73s-3.032-6.786-4.55-9.34c-1.517-2.554-8.86-2.396-8.86-2.396l8.86 13.412L75.01 65.8s.863-2.556 2.298-4.071"/><path fill="#FBC3B1" d="M72.757 63.405s-1.836-7.981-2.156-10.218c-.32-2.234-9.896-6.386-10.855-6.864-.96-.48-.96 5.747-.96 5.747s-1.116 3.354-1.594 5.43c-.48 2.073 9.46 10.651 9.46 10.651s1.556-3.07 6.105-4.746"/><path fill="#1F2F3E" d="M126.402 96.933s-5.747.957-10.537 4.311c0 0 5.812 12.279-6.706 17.004 4.31 4.788 2.156 31.611 6.945 36.879 4.788 5.269 29.218-3.832 30.893-8.142 1.676-4.31-3.114-48.854-20.595-50.052Z"/><path fill="#FEB858" d="M106.727 130.812c.193.061 2.273.667 6.211.667 6.405.002 17.698-1.608 33.785-9.655l-1.934-3.485c-15.591 7.796-26.181 9.201-31.851 9.203-1.745 0-3.025-.134-3.846-.26a12.975 12.975 0 0 1-.888-.165l-.185-.047-.029-.008-.243.764.26-.758-.017-.006-.243.764.26-.758-1.28 3.744ZM109.461 139.142c.104.016 1.594.238 4.351.238 6.297.002 19.208-1.167 37.264-8.576l-1.648-3.614c-17.541 7.196-29.857 8.251-35.616 8.253a36.09 36.09 0 0 1-2.826-.1 15.312 15.312 0 0 1-.68-.065l-.152-.018-.029-.004-.054.343.058-.343h-.004l-.054.343.058-.343-.668 3.886Z"/></svg>
